icon-themes/breeze_svg/cmd/lc_fields.svg

<svg viewBox="0 0 24 24" xmlns="http://www.w3.org/2000/svg"><path d="m4 7v10h1 15v-1-9h-1-14zm11.621094 1 1.378906.8183594 1.378906-.8183594.621094.8183594-2 1.1816406-2-1.1816406zm-10.621094 3h14v5h-14z" fill="#4d4d4d"/></svg>

<svg viewBox="0 0 24 24" xmlns="http://www.w3.org/2000/svg">
  <path
     style="fill:#4d4d4d"
     d="M 4,7 V 17 H 5 20 V 16 7 H 19 5 Z M 15.621094,8 17,8.8183594 18.378906,8 19,8.8183594 17,10 15,8.8183594 Z M 5,11 h 14 v 5 H 5 Z"
     />
</svg>
